src/topics/icons/manifoldjs.svg

<svg height="423" preserveAspectRatio="xMidYMid" viewBox="0 0 256 423" width="256" xmlns="http://www.w3.org/2000/svg"><path d="m256 71.6255001c0-14.3582609-7.234783-27.3808696-19.478261-34.9495652l-50.086956-31.05391306c-.111305-.11130435-.222609-.11130435-.333913-.2226087-11.353044-6.78956522-25.154783-7.23478261-36.84174-1.00173913l-105.8504343 55.76347829c-26.7130435 14.1356521-43.4086957 41.6278257-43.4086957 71.9026087v276.702609c0 8.570434 9.34956522 14.135652 23.9304348 14.135652 2.7826087 0 5.5652174-.222609 8.4591304-.556522 15.36-2.114783 30.8313044-9.906087 30.8313044-20.702609v-251.436521l33.1686956 20.591304v209.252174c0 8.570435 9.4608698 14.135652 23.9304348 14.135652 2.782609 0 5.565217-.222609 8.45913-.556522 15.36-2.114782 30.831305-9.906087 30.831305-20.702608v-293.2869569l-107.8539133 56.8765219v252.660869c-3.5617391-1.113043-7.68-1.780869-12.4660869-1.780869-2.7826087 0-5.5652174.222609-8.4591305.556522-6.9008695 1.001739-13.8017391 3.116521-19.3669565 6.121739v-262.121739c0-25.933913 14.2469565-49.6417395 37.2869565-61.7739134l105.7391307-55.7634783c8.125217-4.3408696 17.697391-4.0069565 25.6.7791304 7.902608 4.786087 12.577391 13.1339131 12.577391 22.372174v313.6556523c0 8.570435 9.349565 14.135652 23.930435 14.135652 2.782609 0 5.565217-.222609 8.45913-.556522 15.36-2.114782 30.831305-9.906087 30.831305-20.702608v-.111305-272.3617389zm-107.853913 78.1356519v210.587826c-3.561739-1.113043-7.68-1.780869-12.466087-1.780869-2.782609 0-5.565217.222608-8.45913.556522-6.90087 1.001739-13.80174 3.116521-19.366957 6.121739v-194.226087zm-20.925217 232.403479c-2.337392.333913-4.674783.445217-6.90087.445217-7.791304 0-11.686957-2.003478-12.466087-2.893913.77913-2.114783 8.236522-7.457391 20.925217-9.238261 2.337392-.333913 4.674783-.445217 6.90087-.445217 7.791304 0 11.686957 2.003478 12.466087 2.893913-.77913 2.226087-8.236522 7.568695-20.925217 9.238261zm20.925217-245.314783-45.857391 24.153043-33.3913047-20.702608 79.2486957-41.7391307zm-115.7565218 262.455652c2.3373913-.333913 4.6747826-.445217 6.9008696-.445217 7.7913043 0 11.6869565 2.003478 12.4660869 2.893913-.7791304 2.114782-8.2365217 7.457391-20.9252174 9.238261-2.3373913.333913-4.6747826.445217-6.9008695.445217-7.7913044 0-11.6869565-2.003478-12.466087-2.893913.7791305-2.114783 8.2365218-7.457391 20.9252174-9.238261zm212.1460868-327.6799999v260.0069569c-3.561739-1.113044-7.68-1.78087-12.466087-1.78087-2.782608 0-5.565217.222609-8.45913.556522-6.90087 1.001739-13.801739 3.116522-19.366957 6.121739v-299.0747827c0-2.7826087-.333913-5.3426087-.890435-8.013913l27.158261 16.8069565c8.793044 5.5652174 14.024348 15.0260869 14.024348 25.3773913zm-20.925217 281.8226089c-2.337392.333913-4.674783.445217-6.90087.445217-7.791304 0-11.686956-2.003478-12.466087-2.893913.779131-2.114782 8.236522-7.457391 20.925218-9.238261 2.337391-.333913 4.674782-.445217 6.900869-.445217 7.791305 0 11.686957 2.003478 12.466087 2.893913-.77913 2.114783-8.236522 7.457391-20.925217 9.238261zm-170.0730437-261.4539133c-12.3547826 5.12-17.8086956 20.1460873-18.0313043 20.7026083-.7791305 2.114783.333913 4.563479 2.56 5.342609.4452173.111304.8904347.222609 1.4469565.222609 1.6695652 0 3.3391304-1.113044 3.8956522-2.782609 0-.111304 4.4521739-12.132174 13.467826-15.9165216 4.1182609-1.6695652 8.5704348-1.3356522 13.6904348 1.0017396 2.1147826 1.001739 4.5634783.111304 5.5652174-2.0034787 1.0017391-2.1147826.1113044-4.5634783-2.0034782-5.5652174-7.346087-3.2278261-14.2469566-3.5617392-20.5913044-1.0017392zm113.0852177-47.5269565c-7.234783-3.4504348-14.135652-3.7843478-20.48-1.1130435-12.354783 5.12-17.808696 20.146087-18.031305 20.7026087-.77913 2.1147827.333913 4.5634783 2.56 5.3426087.445218.1113044.890435.2226087 1.446957.2226087 1.669565 0 3.33913-1.1130434 3.895652-2.7826087 0-.1113043 4.452174-12.1321739 13.467826-15.9165217 4.118261-1.6695652 8.570435-1.3356522 13.690435 1.0017391 2.114783 1.0017392 4.563478.1113044 5.565217-2.0034782.779131-2.0034783-.111304-4.4521739-2.114782-5.4539131z" fill="#f22e2e"/></svg>

<?xml version="1.0" encoding="UTF-8" standalone="no"?>
<svg width="256px" height="423px" viewBox="0 0 256 423" version="1.1" xmlns="http://www.w3.org/2000/svg" xmlns:xlink="http://www.w3.org/1999/xlink" preserveAspectRatio="xMidYMid">
    <g>
        <path d="M256,71.6255001 C256,57.2672392 248.765217,44.2446305 236.521739,36.6759349 L186.434783,5.62202184 C186.323478,5.51071749 186.212174,5.51071749 186.10087,5.39941314 C174.747826,-1.39015208 160.946087,-1.83536947 149.25913,4.39767401 L43.4086957,60.1611523 C16.6956522,74.2968044 0,101.788978 0,132.063761 L0,408.76637 C0,417.336804 9.34956522,422.902022 23.9304348,422.902022 C26.7130435,422.902022 29.4956522,422.679413 32.3895652,422.3455 C47.7495652,420.230717 63.2208696,412.439413 63.2208696,401.642891 L63.2208696,150.20637 L96.3895652,170.797674 L96.3895652,380.049848 C96.3895652,388.620283 105.850435,394.1855 120.32,394.1855 C123.102609,394.1855 125.885217,393.962891 128.77913,393.628978 C144.13913,391.514196 159.610435,383.722891 159.610435,372.92637 L159.610435,79.6394131 L51.7565217,136.515935 L51.7565217,389.176804 C48.1947826,388.063761 44.0765217,387.395935 39.2904348,387.395935 C36.5078261,387.395935 33.7252174,387.618544 30.8313043,387.952457 C23.9304348,388.954196 17.0295652,391.068978 11.4643478,394.074196 L11.4643478,131.952457 C11.4643478,106.018544 25.7113043,82.3107175 48.7513043,70.1785436 L154.490435,14.4150653 C162.615652,10.0741957 172.187826,10.4081088 180.090435,15.1941957 C187.993043,19.9802827 192.667826,28.3281088 192.667826,37.5663697 L192.667826,351.222022 C192.667826,359.792457 202.017391,365.357674 216.598261,365.357674 C219.38087,365.357674 222.163478,365.135065 225.057391,364.801152 C240.417391,362.68637 255.888696,354.895065 255.888696,344.098544 L255.888696,343.987239 L255.888696,343.987239 L255.888696,71.6255001 L256,71.6255001 Z M148.146087,149.761152 L148.146087,360.348978 C144.584348,359.235935 140.466087,358.568109 135.68,358.568109 C132.897391,358.568109 130.114783,358.790717 127.22087,359.124631 C120.32,360.12637 113.41913,362.241152 107.853913,365.24637 L107.853913,171.020283 L148.146087,149.761152 L148.146087,149.761152 Z M127.22087,382.164631 C124.883478,382.498544 122.546087,382.609848 120.32,382.609848 C112.528696,382.609848 108.633043,380.60637 107.853913,379.715935 C108.633043,377.601152 116.090435,372.258544 128.77913,370.477674 C131.116522,370.143761 133.453913,370.032457 135.68,370.032457 C143.471304,370.032457 147.366957,372.035935 148.146087,372.92637 C147.366957,375.152457 139.909565,380.495065 127.22087,382.164631 L127.22087,382.164631 Z M148.146087,136.849848 L102.288696,161.002891 L68.8973913,140.300283 L148.146087,98.5611523 L148.146087,136.849848 L148.146087,136.849848 Z M32.3895652,399.3055 C34.7269565,398.971587 37.0643478,398.860283 39.2904348,398.860283 C47.0817391,398.860283 50.9773913,400.863761 51.7565217,401.754196 C50.9773913,403.868978 43.52,409.211587 30.8313043,410.992457 C28.493913,411.32637 26.1565217,411.437674 23.9304348,411.437674 C16.1391304,411.437674 12.2434783,409.434196 11.4643478,408.543761 C12.2434783,406.428978 19.7008696,401.08637 32.3895652,399.3055 L32.3895652,399.3055 Z M244.535652,71.6255001 L244.535652,331.632457 C240.973913,330.519413 236.855652,329.851587 232.069565,329.851587 C229.286957,329.851587 226.504348,330.074196 223.610435,330.408109 C216.709565,331.409848 209.808696,333.524631 204.243478,336.529848 L204.243478,37.4550653 C204.243478,34.6724566 203.909565,32.1124566 203.353043,29.4411523 L230.511304,46.2481088 C239.304348,51.8133262 244.535652,61.2741957 244.535652,71.6255001 L244.535652,71.6255001 Z M223.610435,353.448109 C221.273043,353.782022 218.935652,353.893326 216.709565,353.893326 C208.918261,353.893326 205.022609,351.889848 204.243478,350.999413 C205.022609,348.884631 212.48,343.542022 225.168696,341.761152 C227.506087,341.427239 229.843478,341.315935 232.069565,341.315935 C239.86087,341.315935 243.756522,343.319413 244.535652,344.209848 C243.756522,346.324631 236.29913,351.667239 223.610435,353.448109 Z M53.5373913,91.9941957 C41.1826087,97.1141957 35.7286957,112.140283 35.506087,112.696804 C34.7269565,114.811587 35.84,117.260283 38.066087,118.039413 C38.5113043,118.150717 38.9565217,118.262022 39.5130435,118.262022 C41.1826087,118.262022 42.8521739,117.148978 43.4086957,115.479413 C43.4086957,115.368109 47.8608696,103.347239 56.8765217,99.5628914 C60.9947826,97.8933262 65.4469565,98.2272392 70.5669565,100.564631 C72.6817391,101.56637 75.1304348,100.675935 76.1321739,98.5611523 C77.133913,96.4463697 76.2434783,93.997674 74.1286957,92.9959349 C66.7826087,89.7681088 59.8817391,89.4341957 53.5373913,91.9941957 Z M166.622609,44.4672392 C159.387826,41.0168044 152.486957,40.6828914 146.142609,43.3541957 C133.787826,48.4741957 128.333913,63.5002827 128.111304,64.0568044 C127.332174,66.1715871 128.445217,68.6202827 130.671304,69.3994131 C131.116522,69.5107175 131.561739,69.6220218 132.118261,69.6220218 C133.787826,69.6220218 135.457391,68.5089784 136.013913,66.8394131 C136.013913,66.7281088 140.466087,54.7072392 149.481739,50.9228914 C153.6,49.2533262 158.052174,49.5872392 163.172174,51.9246305 C165.286957,52.9263697 167.735652,52.0359349 168.737391,49.9211523 C169.516522,47.917674 168.626087,45.4689784 166.622609,44.4672392 Z" fill="#F22E2E"></path>
    </g>
</svg>
